build/documents/TasksSolid.svg

<svg xmlns="http://www.w3.org/2000/svg" fill="none" viewBox="0 0 24 24" focusable="false"><path d="M0 0H24V24H0z"/><path fill="#74767B" fill-rule="evenodd" d="M20.39 8.82489C21.2283 8.82489 21.2283 7.52489 20.39 7.52489L19 7.52489L19 6.03491C19 4.37491 17.66 3.03491 16 3.03491L7 3.03491C5.34 3.03491 4 4.37491 4 6.03491L4 17.9999C4 19.6599 5.34 20.9999 7 20.9999L16 20.9999C17.66 20.9999 19 19.6499 19 17.9999L19 16.4999L20.39 16.4999C20.749 16.4999 21.04 16.2089 21.04 15.8499C21.04 15.491 20.749 15.1999 20.39 15.1999L19 15.1999L19 8.82489L20.39 8.82489ZM10.7985 7.55005C11.0705 7.78437 11.101 8.1948 10.8667 8.46676L9.29322 10.2929C9.17796 10.4267 9.01324 10.5078 8.83693 10.5176C8.66063 10.5274 8.48792 10.4651 8.35852 10.345L7.17843 9.24927C6.91536 9.00501 6.90011 8.59374 7.14437 8.33067C7.38863 8.06759 7.7999 8.05234 8.06298 8.2966L8.7487 8.93329L9.88181 7.61819C10.1161 7.34623 10.5266 7.31572 10.7985 7.55005ZM13.0686 9.60554C12.7096 9.60554 12.4186 9.31453 12.4186 8.95554C12.4186 8.59656 12.7096 8.30554 13.0686 8.30554L15.35 8.30554C15.709 8.30554 16 8.59655 16 8.95554C16 9.31452 15.709 9.60554 15.35 9.60554L13.0686 9.60554ZM6.99741 14.3739C6.99741 13.6559 7.57944 13.0739 8.29741 13.0739L9.69741 13.0739C10.4154 13.0739 10.9974 13.6559 10.9974 14.3739L10.9974 15.7739C10.9974 16.4919 10.4154 17.0739 9.69741 17.0739L8.29741 17.0739C7.57944 17.0739 6.99741 16.4919 6.99741 15.7739L6.99741 14.3739ZM8.29741 14.3739L9.69741 14.3739L9.69741 15.7739L8.29741 15.7739L8.29741 14.3739ZM13.0686 15.7239C12.7096 15.7239 12.4186 15.4329 12.4186 15.0739C12.4186 14.7149 12.7096 14.4239 13.0686 14.4239L15.35 14.4239C15.709 14.4239 16 14.7149 16 15.0739C16 15.4329 15.709 15.7239 15.35 15.7239L13.0686 15.7239Z"/></svg>

<svg xmlns="http://www.w3.org/2000/svg" fill="none" viewBox="0 0 24 24" focusable="false"><path fill="#74767B" fill-rule="evenodd" d="M20.38 8.82c.84 0 .84-1.3 0-1.3H19V6.03c0-1.66-1.35-3-3-3H7c-1.66 0-3 1.34-3 3v11.96c0 1.66 1.34 3 3 3h9c1.65 0 3-1.35 3-3v-1.5h1.38c.36 0 .66-.29.66-.65 0-.35-.3-.65-.66-.65H19V8.82zm-9.59-1.27c.28.23.31.64.07.91l-1.57 1.83a.661.661 0 0 1-.94.05l-1.18-1.1a.646.646 0 0 1-.03-.91.65.65 0 0 1 .92-.04l.68.64 1.14-1.32c.23-.27.64-.3.91-.06m2.27 2.05c-.36 0-.65-.29-.65-.65s.29-.65.65-.65h2.29c.35 0 .65.29.65.65s-.3.65-.65.65zm-6.07 4.77c0-.72.58-1.3 1.3-1.3h1.4c.72 0 1.3.58 1.3 1.3v1.4c0 .72-.58 1.3-1.3 1.3h-1.4c-.72 0-1.3-.58-1.3-1.3zm1.3 0h1.4v1.4h-1.4zm4.77 1.35c-.36 0-.65-.29-.65-.65s.29-.65.65-.65h2.29c.35 0 .65.29.65.65s-.3.65-.65.65z"/></svg>
